packages/ui-icons/svg/Solid/skype.svg

<svg viewBox="0 0 1920 1920" version="1.1" xmlns="http://www.w3.org/2000/svg">
    <path d="M1364.66824,1315.42588 C1331.12471,1363.2 1281.54353,1401.14824 1217.39294,1428.14118 C1153.58118,1454.68235 1077.23294,1468.23529 990.381176,1468.23529 C886.249412,1468.23529 798.832941,1449.82588 730.729412,1413.34588 C681.938824,1386.91765 641.731765,1350.88941 611.124706,1306.50353 C580.291765,1261.77882 564.705882,1217.28 564.705882,1174.47529 C564.705882,1147.70824 574.870588,1124.55529 595.087059,1105.35529 C614.851765,1086.60706 640.263529,1077.00706 670.644706,1077.00706 C695.604706,1077.00706 717.176471,1084.68706 734.682353,1099.48235 C751.284706,1113.82588 765.628235,1134.83294 777.261176,1162.16471 C790.023529,1191.75529 804.028235,1216.71529 818.823529,1236.59294 C833.167059,1255.56706 853.722353,1271.49176 879.811765,1284.02824 C906.127059,1296.45176 941.477647,1302.88941 985.185882,1302.88941 C1045.15765,1302.88941 1094.4,1290.01412 1131.33176,1264.60235 C1167.47294,1239.64235 1185.09176,1209.82588 1185.09176,1173.34588 C1185.09176,1144.43294 1175.94353,1121.84471 1157.08235,1103.88706 C1137.20471,1085.36471 1111.11529,1070.79529 1079.60471,1060.96941 C1046.62588,1050.69176 1001.78824,1039.51059 946.447059,1027.76471 C871.115294,1011.50118 807.077647,992.188235 756.141176,970.390588 C704.188235,948.141176 662.174118,917.308235 631.567059,878.456471 C600.395294,839.152941 584.583529,789.910588 584.583529,731.971765 C584.583529,676.743529 601.185882,627.049412 633.938824,584.131765 C666.352941,541.44 713.675294,508.348235 774.663529,485.534118 C834.974118,463.284706 906.578824,451.764706 987.670588,451.764706 C1052.38588,451.764706 1109.53412,459.218824 1157.08235,474.24 C1204.85647,489.261176 1245.17647,509.477647 1276.91294,534.437647 C1308.87529,559.510588 1332.59294,586.390588 1347.50118,614.287059 C1362.40941,642.522353 1370.20235,670.644706 1370.20235,697.637647 C1370.20235,723.84 1360.03765,747.557647 1340.38588,768.225882 C1320.50824,789.007059 1295.43529,799.623529 1265.84471,799.623529 C1239.07765,799.623529 1217.95765,793.072941 1203.27529,779.971765 C1189.72235,767.887059 1175.60471,749.025882 1160.01882,721.92 C1141.83529,687.247059 1119.92471,660.028235 1094.85176,640.715294 C1070.45647,622.08 1029.79765,612.592941 973.778824,612.592941 C921.712941,612.592941 879.472941,623.096471 848.075294,643.877647 C817.694118,663.868235 803.011765,686.795294 803.011765,713.901176 C803.011765,730.616471 807.755294,744.508235 817.581176,756.48 C827.858824,769.242353 842.428235,780.310588 860.724706,789.458824 C879.811765,799.284706 899.463529,806.851765 919.115294,812.385882 C939.331765,818.032941 973.214118,826.277647 1019.52,837.12 C1078.24941,849.882353 1132.23529,864 1180.00941,879.472941 C1228.34824,895.058824 1270.24941,914.258824 1304.24471,936.621176 C1338.80471,959.322353 1366.47529,988.574118 1385.90118,1023.58588 C1405.55294,1058.59765 1415.49176,1101.96706 1415.49176,1152.33882 C1415.49176,1212.42353 1398.43765,1267.31294 1364.66824,1315.42588 M1864.77176,1163.74588 C1878.55059,1101.40235 1886.00471,1036.68706 1886.00471,969.938824 C1886.00471,471.303529 1476.02824,67.0870588 970.164706,67.0870588 C916.856471,67.0870588 864.451765,71.6047059 813.628235,80.3011765 C731.745882,29.3647059 634.955294,0 531.049412,0 C237.854118,0 0,234.352941 0,523.595294 C0,620.272941 26.7670588,710.738824 72.96,788.555294 C60.8752941,847.171765 54.5505882,907.821176 54.5505882,969.938824 C54.5505882,1468.68706 464.414118,1873.01647 970.164706,1873.01647 C1027.53882,1873.01647 1083.44471,1867.70824 1137.88235,1857.88235 C1212.64941,1897.41176 1298.14588,1920 1389.06353,1920 C1682.37176,1920 1920,1685.64706 1920,1396.40471 C1920,1312.82824 1900.00941,1233.88235 1864.77176,1163.74588" stroke="none" stroke-width="1" fill-rule="evenodd"/>
</svg>

<svg viewBox="0 0 1920 1920" version="1.1" xmlns="http://www.w3.org/2000/svg">
    <path d="M1364.668 1315.426c-33.543 47.774-83.124 85.722-147.275 112.715-63.812 26.541-140.16 40.094-227.012 40.094-104.132 0-191.548-18.41-259.652-54.89-48.79-26.427-88.997-62.456-119.604-106.841-30.833-44.725-46.42-89.224-46.42-132.029 0-26.767 10.166-49.92 30.382-69.12 19.765-18.748 45.177-28.348 75.558-28.348 24.96 0 46.531 7.68 64.037 22.475 16.603 14.344 30.946 35.35 42.58 62.683 12.762 29.59 26.766 54.55 41.562 74.428 14.343 18.974 34.898 34.899 60.988 47.435 26.315 12.424 61.666 18.861 105.374 18.861 59.972 0 109.214-12.875 146.146-38.287 36.14-24.96 53.76-54.776 53.76-91.256 0-28.913-9.148-51.501-28.01-69.459-19.877-18.522-45.967-33.092-77.477-42.918-32.98-10.277-77.817-21.458-133.158-33.204-75.332-16.264-139.37-35.577-190.306-57.374-51.953-22.25-93.967-53.083-124.574-91.935-31.172-39.303-46.983-88.545-46.983-146.484 0-55.228 16.602-104.923 49.355-147.84 32.414-42.692 79.736-75.784 140.725-98.598 60.31-22.25 131.915-33.77 213.007-33.77 64.715 0 121.863 7.455 169.411 22.476 47.774 15.021 88.094 35.238 119.83 60.198 31.963 25.073 55.68 51.953 70.59 79.85 14.907 28.234 22.7 56.357 22.7 83.35 0 26.202-10.164 49.92-29.816 70.588-19.878 20.781-44.95 31.398-74.541 31.398-26.767 0-47.887-6.551-62.57-19.652-13.553-12.085-27.67-30.946-43.256-58.052-18.184-34.673-40.094-61.892-65.167-81.205-24.396-18.635-65.054-28.122-121.073-28.122-52.066 0-94.306 10.503-125.704 31.285-30.38 19.99-45.063 42.917-45.063 70.023 0 16.715 4.743 30.607 14.57 42.579 10.277 12.762 24.846 23.83 43.143 32.979 19.087 9.826 38.739 17.393 58.39 22.927 20.217 5.647 54.1 13.892 100.405 24.734 58.73 12.762 112.715 26.88 160.49 42.353 48.338 15.586 90.24 34.786 124.235 57.148 34.56 22.701 62.23 51.953 81.656 86.965 19.652 35.012 29.59 78.381 29.59 128.753 0 60.085-17.053 114.974-50.823 163.087m500.104-151.68c13.779-62.344 21.233-127.059 21.233-193.807 0-498.635-409.977-902.852-915.84-902.852-53.309 0-105.713 4.518-156.537 13.214C731.746 29.365 634.955 0 531.05 0 237.854 0 0 234.353 0 523.595c0 96.678 26.767 187.144 72.96 264.96-12.085 58.617-18.41 119.266-18.41 181.384 0 498.748 409.864 903.077 915.615 903.077 57.374 0 113.28-5.308 167.717-15.134 74.767 39.53 160.264 62.118 251.182 62.118 293.308 0 530.936-234.353 530.936-523.595 0-83.577-19.99-162.523-55.228-232.66" stroke="none" stroke-width="1" fill-rule="evenodd"/>
</svg>
